X: 11983
T: Enlist For A Sailor
R: polka
M: 2/4
K: Edorian
B,2|:E2 EF|G2 A2|B2 e2|B2 Bc|
d2 d2|d2 FG|AB AF|D2 B,2|
E2 EF|G2 A2|B2 e2|B2 Bc|
d2 F2|A2 GF|E4|1 E2 B,2:|2 E2 GA||
|:B2e2|B2 e2|B2 G2|E2 FG|
A2 d2|A2 d2|A2 F2|D4|
B2 e2|B2 e2|B2 G2|E2 FG|
A2 F2|d2 F2|E4|1 EF GA:|2 E2||

